images/wise.svg

<svg height="250" viewBox="0 0 250 250" width="250" xmlns="http://www.w3.org/2000/svg"><g fill="#29abb5"><path d="m55.636719 92.796875c1.296875 0 2.480469.023437 3.617187.082031.554688.023438 1.113282.050782 1.636719.085938 1.484375.09375 2.980469.226562 4.472656.410156-.035156.042969-.066406.089844-.101562.132812 3.390625.390626 6.738281.996094 10.023437 1.816407.035156-.039063.066406-.078125.101563-.117188 13.027343 3.234375 25.097656 9.625 35.097656 18.609375 5.605469 5.039063 10.496094 10.851563 14.515625 17.222656 4.027344-6.371093 8.914062-12.183593 14.515625-17.214843 10.015625-9.011719 22.074219-15.40625 35.0625-18.621094h.003906c.03125.039063.066407.082031.097657.121094 1.132812-.285157 2.269531-.535157 3.414062-.769531 2.171875-.441407 4.382812-.792969 6.605469-1.046876-.035157-.042968-.0625-.089843-.097657-.132812 1.480469-.179688 2.964844-.3125 4.445313-.402344.542969-.039062 1.117187-.070312 1.75-.09375 1.074219-.058594 2.273437-.082031 3.574219-.082031 11.480468 0 20.824218-9.347656 20.824218-20.832031v-16.394532h-8.199218v16.394532c0 6.964844-5.664063 12.632812-12.625 12.632812-1.421875 0-2.746094.027344-3.945313.089844-.691406.027344-1.320312.058594-1.921875.101562-3.367187.214844-6.746094.617188-10.066406 1.214844-.507812.09375-1.015625.1875-1.519531.289063-.191407.03125-.386719.070312-.585938.113281-2.796875.5625-5.558593 1.265625-8.273437 2.09375h-.007813c-12.550781 3.824219-24.179687 10.378906-34.019531 19.226562-3.226562 2.902344-6.246094 6.039063-9.03125 9.386719-2.78125-3.347656-5.804688-6.488281-9.035156-9.390625-9.824219-8.835937-21.464844-15.382812-34.054688-19.214844h-.003906c-2.816406-.859374-5.683594-1.582031-8.582031-2.164062-.601563-.121094-1.199219-.234375-1.800781-.335938-3.359376-.605468-6.757813-1.015624-10.117188-1.226562-.566406-.039062-1.171875-.066406-1.789062-.09375-1.257813-.0625-2.5625-.089844-3.980469-.089844-6.964844 0-12.636719-5.667968-12.636719-12.632812v-16.394532h-8.195312v16.394532c0 11.484375 9.34375 20.832031 20.832031 20.832031"/><path d="m194.367188 118.082031c-.796876 0-1.589844.019531-2.410157.054688-1.617187.066406-3.210937.203125-4.785156.402343 1.734375 5.835938 2.664063 12.011719 2.664063 18.402344 0 35.765625-29.089844 64.859375-64.851563 64.859375-35.757813 0-64.851563-29.09375-64.851563-64.859375 0-6.390625.925782-12.566406 2.664063-18.402344-1.554687-.195312-3.117187-.328124-4.683594-.394531l-.070312-.007812c-.804688-.035157-1.566407-.054688-2.40625-.054688-.695313 0-1.386719-.015625-2.074219-.046875-1.605469 6.035156-2.457031 12.375-2.457031 18.90625 0 40.742188 33.144531 73.886719 73.878906 73.886719 40.738281 0 73.878906-33.144531 73.878906-73.886719 0-6.53125-.851562-12.871094-2.457031-18.90625-.675781.03125-1.355469.046875-2.039062.046875"/><path d="m110.199219 73.796875c4.753906-1.117187 9.703125-1.707031 14.785156-1.707031 5.085937 0 10.039063.59375 14.796875 1.707031 2.515625-1.363281 5.085938-2.628906 7.710938-3.800781l1.605468-.71875h.023438c.917968-.390625 1.839844-.777344 2.769531-1.144532-8.34375-3.273437-17.417969-5.066406-26.90625-5.066406s-18.5625 1.796875-26.90625 5.066406c1.480469.589844 2.949219 1.207032 4.398437 1.851563 2.625 1.175781 5.203126 2.445313 7.722657 3.8125"/><path d="m223.394531 71.96875c0 16.003906-13.019531 29.023438-29.027343 29.023438-1.183594 0-2.25.027343-3.199219.078124-.527344.019532-1.046875.042969-1.578125.082032-3.253906.199218-6.527344.625-9.730469 1.269531-.058594.007813-.117187.019531-.171875.035156-12.875 2.589844-24.867188 8.625-34.6875 17.460938-9.066406 8.144531-15.882812 18.347656-20.003906 29.578125-4.109375-11.230469-10.921875-21.433594-19.988282-29.578125-9.886718-8.886719-22.003906-14.914063-34.898437-17.496094-3.199219-.636719-6.457031-1.070313-9.730469-1.277344-.5-.03125-1-.054687-1.496094-.074219-1-.050781-2.058593-.078124-3.246093-.078124-16.011719 0-29.03125-13.019532-29.03125-29.023438h-9.027344c0 20.980469 17.070313 38.050781 38.058594 38.050781.1875 0 .367187 0 .542969.007813.8125.003906 1.554687.023437 2.277343.0625 2.410157.105468 4.808594.34375 7.183594.71875 12.335937 1.914062 23.96875 7.40625 33.332031 15.824218 13.589844 12.21875 21.433594 29.691407 21.507813 47.953126v.078124l.007812.207032h9.027344c0-.097656 0-.1875-.003906-.285156h.011719c.070312-18.261719 7.914062-35.734376 21.511718-47.953126 8.621094-7.753906 19.140625-13.054687 30.4375-15.324218.941406-.191406 1.894532-.359375 2.847656-.507813 2.402344-.382812 4.832032-.613281 7.269532-.71875.675781-.03125 1.398437-.050781 2.199218-.054687.1875-.007813.378907-.007813.578126-.007813 20.984374 0 38.054687-17.070312 38.054687-38.050781zm0 0"/><path d="m55.636719 76.398438c1.542969 0 2.96875.03125 4.351562.097656.671875.03125 1.328125.066406 1.933594.105468 4.324219.273438 8.699219.84375 13.011719 1.703126 1.347656.269531 2.6875.566406 4.023437.898437 3.667969.894531 7.28125 1.996094 10.816407 3.304687 11.628906 4.296876 22.394531 10.773438 31.667968 19.113282 1.210938 1.085937 2.398438 2.210937 3.558594 3.363281 1.164062-1.152344 2.34375-2.269531 3.550781-3.351563 9.285157-8.355468 20.03125-14.832031 31.636719-19.128906h.003906c3.535156-1.308594 7.144532-2.417968 10.816406-3.304687 1.214844-.304688 2.433594-.574219 3.660157-.824219.246093-.050781.488281-.09375.730469-.144531 4.125-.808594 8.347656-1.355469 12.554687-1.621094.667969-.042969 1.359375-.082031 2.101563-.113281 1.328124-.066406 2.777343-.097656 4.316406-.097656 2.4375 0 4.425781-1.988282 4.425781-4.429688v-32.796875h-8.199219v29.097656c-.308594.007813-.617187.023438-.914062.039063-.800782.027344-1.542969.070312-2.273438.125-4.535156.28125-9.09375.871094-13.546875 1.746094-.277343.050781-.5625.109374-.855469.167968-3.65625.742188-7.257812 1.679688-10.796874 2.804688-3.871094 1.21875-7.664063 2.664062-11.367188 4.324218h-.003906c-9.3125 4.164063-18.023438 9.667969-25.839844 16.359376-7.808594-6.6875-16.53125-12.191407-25.867188-16.363282-3.703124-1.652344-7.5-3.097656-11.375-4.320312-3.675781-1.160156-7.417968-2.125-11.21875-2.886719-4.664062-.929687-9.410156-1.550781-14.101562-1.851563-.648438-.039062-1.351562-.078124-2.082031-.105468-.3125-.019532-.632813-.03125-.957031-.042969v-29.09375h-8.199219v32.796875c0 2.441406 1.996093 4.429688 4.4375 4.429688"/><path d="m91.269531 130.898438c-2.601562-2.121094-5.382812-4.003907-8.304687-5.621094-3.550782 2.933594-5.820313 7.375-5.820313 12.328125 0 8.820312 7.175781 15.992187 15.996094 15.992187 4.886719 0 9.265625-2.199218 12.195313-5.667968-1.582032-2.941407-3.425782-5.746094-5.515626-8.375-.84375 2.894531-3.519531 5.015624-6.679687 5.015624-3.84375 0-6.96875-3.121093-6.96875-6.964843 0-3.191407 2.160156-5.886719 5.097656-6.707031"/><path d="m156.84375 144.570312c-3.160156 0-5.835938-2.113281-6.671875-5.007812-2.097656 2.621094-3.941406 5.425781-5.519531 8.367188 2.925781 3.46875 7.304687 5.667968 12.191406 5.667968 8.816406 0 15.988281-7.167968 15.988281-15.992187 0-4.953125-2.265625-9.394531-5.816406-12.328125-2.914063 1.617187-5.695313 3.496094-8.300781 5.621094 2.933594.820312 5.085937 3.523437 5.085937 6.707031 0 3.84375-3.117187 6.964843-6.957031 6.964843"/></g></svg>

<svg xmlns="http://www.w3.org/2000/svg" xmlns:xlink="http://www.w3.org/1999/xlink" width="250px" height="250px" viewBox="0 0 250 250" version="1.1">
<g id="surface1">
<path style=" stroke:none;fill-rule:nonzero;fill:rgb(16.078432%,67.058825%,70.980394%);fill-opacity:1;" d="M 55.636719 92.796875 C 56.933594 92.796875 58.117188 92.820312 59.253906 92.878906 C 59.808594 92.902344 60.367188 92.929688 60.890625 92.964844 C 62.375 93.058594 63.871094 93.191406 65.363281 93.375 C 65.328125 93.417969 65.296875 93.464844 65.261719 93.507812 C 68.652344 93.898438 72 94.503906 75.285156 95.324219 C 75.320312 95.285156 75.351562 95.246094 75.386719 95.207031 C 88.414062 98.441406 100.484375 104.832031 110.484375 113.816406 C 116.089844 118.855469 120.980469 124.667969 125 131.039062 C 129.027344 124.667969 133.914062 118.855469 139.515625 113.824219 C 149.53125 104.8125 161.589844 98.417969 174.578125 95.203125 L 174.582031 95.203125 C 174.613281 95.242188 174.648438 95.285156 174.679688 95.324219 C 175.8125 95.039062 176.949219 94.789062 178.09375 94.554688 C 180.265625 94.113281 182.476562 93.761719 184.699219 93.507812 C 184.664062 93.464844 184.636719 93.417969 184.601562 93.375 C 186.082031 93.195312 187.566406 93.0625 189.046875 92.972656 C 189.589844 92.933594 190.164062 92.902344 190.796875 92.878906 C 191.871094 92.820312 193.070312 92.796875 194.371094 92.796875 C 205.851562 92.796875 215.195312 83.449219 215.195312 71.964844 L 215.195312 55.570312 L 206.996094 55.570312 L 206.996094 71.964844 C 206.996094 78.929688 201.332031 84.597656 194.371094 84.597656 C 192.949219 84.597656 191.625 84.625 190.425781 84.6875 C 189.734375 84.714844 189.105469 84.746094 188.503906 84.789062 C 185.136719 85.003906 181.757812 85.40625 178.4375 86.003906 C 177.929688 86.097656 177.421875 86.191406 176.917969 86.292969 C 176.726562 86.324219 176.53125 86.363281 176.332031 86.40625 C 173.535156 86.96875 170.773438 87.671875 168.058594 88.5 L 168.050781 88.5 C 155.5 92.324219 143.871094 98.878906 134.03125 107.726562 C 130.804688 110.628906 127.785156 113.765625 125 117.113281 C 122.21875 113.765625 119.195312 110.625 115.964844 107.722656 C 106.140625 98.886719 94.5 92.339844 81.910156 88.507812 L 81.90625 88.507812 C 79.089844 87.648438 76.222656 86.925781 73.324219 86.34375 C 72.722656 86.222656 72.125 86.109375 71.523438 86.007812 C 68.164062 85.402344 64.765625 84.992188 61.40625 84.78125 C 60.839844 84.742188 60.234375 84.714844 59.617188 84.6875 C 58.359375 84.625 57.054688 84.597656 55.636719 84.597656 C 48.671875 84.597656 43 78.929688 43 71.964844 L 43 55.570312 L 34.804688 55.570312 L 34.804688 71.964844 C 34.804688 83.449219 44.148438 92.796875 55.636719 92.796875 "/>
<path style=" stroke:none;fill-rule:nonzero;fill:rgb(16.078432%,67.058825%,70.980394%);fill-opacity:1;" d="M 194.367188 118.082031 C 193.570312 118.082031 192.777344 118.101562 191.957031 118.136719 C 190.339844 118.203125 188.746094 118.339844 187.171875 118.539062 C 188.90625 124.375 189.835938 130.550781 189.835938 136.941406 C 189.835938 172.707031 160.746094 201.800781 124.984375 201.800781 C 89.226562 201.800781 60.132812 172.707031 60.132812 136.941406 C 60.132812 130.550781 61.058594 124.375 62.796875 118.539062 C 61.242188 118.34375 59.679688 118.210938 58.113281 118.144531 L 58.042969 118.136719 C 57.238281 118.101562 56.476562 118.082031 55.636719 118.082031 C 54.941406 118.082031 54.25 118.066406 53.5625 118.035156 C 51.957031 124.070312 51.105469 130.410156 51.105469 136.941406 C 51.105469 177.683594 84.25 210.828125 124.984375 210.828125 C 165.722656 210.828125 198.863281 177.683594 198.863281 136.941406 C 198.863281 130.410156 198.011719 124.070312 196.40625 118.035156 C 195.730469 118.066406 195.050781 118.082031 194.367188 118.082031 "/>
<path style=" stroke:none;fill-rule:nonzero;fill:rgb(16.078432%,67.058825%,70.980394%);fill-opacity:1;" d="M 110.199219 73.796875 C 114.953125 72.679688 119.902344 72.089844 124.984375 72.089844 C 130.070312 72.089844 135.023438 72.683594 139.78125 73.796875 C 142.296875 72.433594 144.867188 71.167969 147.492188 69.996094 L 149.097656 69.277344 L 149.121094 69.277344 C 150.039062 68.886719 150.960938 68.5 151.890625 68.132812 C 143.546875 64.859375 134.472656 63.066406 124.984375 63.066406 C 115.496094 63.066406 106.421875 64.863281 98.078125 68.132812 C 99.558594 68.722656 101.027344 69.339844 102.476562 69.984375 C 105.101562 71.160156 107.679688 72.429688 110.199219 73.796875 "/>
<path style=" stroke:none;fill-rule:nonzero;fill:rgb(16.078432%,67.058825%,70.980394%);fill-opacity:1;" d="M 223.394531 71.96875 C 223.394531 87.972656 210.375 100.992188 194.367188 100.992188 C 193.183594 100.992188 192.117188 101.019531 191.167969 101.070312 C 190.640625 101.089844 190.121094 101.113281 189.589844 101.152344 C 186.335938 101.351562 183.0625 101.777344 179.859375 102.421875 C 179.800781 102.429688 179.742188 102.441406 179.6875 102.457031 C 166.8125 105.046875 154.820312 111.082031 145 119.917969 C 135.933594 128.0625 129.117188 138.265625 124.996094 149.496094 C 120.886719 138.265625 114.074219 128.0625 105.007812 119.917969 C 95.121094 111.03125 83.003906 105.003906 70.109375 102.421875 C 66.910156 101.785156 63.652344 101.351562 60.378906 101.144531 C 59.878906 101.113281 59.378906 101.089844 58.882812 101.070312 C 57.882812 101.019531 56.824219 100.992188 55.636719 100.992188 C 39.625 100.992188 26.605469 87.972656 26.605469 71.96875 L 17.578125 71.96875 C 17.578125 92.949219 34.648438 110.019531 55.636719 110.019531 C 55.824219 110.019531 56.003906 110.019531 56.179688 110.027344 C 56.992188 110.03125 57.734375 110.050781 58.457031 110.089844 C 60.867188 110.195312 63.265625 110.433594 65.640625 110.808594 C 77.976562 112.722656 89.609375 118.214844 98.972656 126.632812 C 112.5625 138.851562 120.40625 156.324219 120.480469 174.585938 L 120.480469 174.664062 L 120.488281 174.871094 L 129.515625 174.871094 C 129.515625 174.773438 129.515625 174.683594 129.511719 174.585938 L 129.523438 174.585938 C 129.59375 156.324219 137.4375 138.851562 151.035156 126.632812 C 159.65625 118.878906 170.175781 113.578125 181.472656 111.308594 C 182.414062 111.117188 183.367188 110.949219 184.320312 110.800781 C 186.722656 110.417969 189.152344 110.1875 191.589844 110.082031 C 192.265625 110.050781 192.988281 110.03125 193.789062 110.027344 C 193.976562 110.019531 194.167969 110.019531 194.367188 110.019531 C 215.351562 110.019531 232.421875 92.949219 232.421875 71.96875 Z M 223.394531 71.96875 "/>
<path style=" stroke:none;fill-rule:nonzero;fill:rgb(16.078432%,67.058825%,70.980394%);fill-opacity:1;" d="M 55.636719 76.398438 C 57.179688 76.398438 58.605469 76.429688 59.988281 76.496094 C 60.660156 76.527344 61.316406 76.5625 61.921875 76.601562 C 66.246094 76.875 70.621094 77.445312 74.933594 78.304688 C 76.28125 78.574219 77.621094 78.871094 78.957031 79.203125 C 82.625 80.097656 86.238281 81.199219 89.773438 82.507812 C 101.402344 86.804688 112.167969 93.28125 121.441406 101.621094 C 122.652344 102.707031 123.839844 103.832031 125 104.984375 C 126.164062 103.832031 127.34375 102.714844 128.550781 101.632812 C 137.835938 93.277344 148.582031 86.800781 160.1875 82.503906 L 160.191406 82.503906 C 163.726562 81.195312 167.335938 80.085938 171.007812 79.199219 C 172.222656 78.894531 173.441406 78.625 174.667969 78.375 C 174.914062 78.324219 175.15625 78.28125 175.398438 78.230469 C 179.523438 77.421875 183.746094 76.875 187.953125 76.609375 C 188.621094 76.566406 189.3125 76.527344 190.054688 76.496094 C 191.382812 76.429688 192.832031 76.398438 194.371094 76.398438 C 196.808594 76.398438 198.796875 74.410156 198.796875 71.96875 L 198.796875 39.171875 L 190.597656 39.171875 L 190.597656 68.269531 C 190.289062 68.277344 189.980469 68.292969 189.683594 68.308594 C 188.882812 68.335938 188.140625 68.378906 187.410156 68.433594 C 182.875 68.714844 178.316406 69.304688 173.863281 70.179688 C 173.585938 70.230469 173.300781 70.289062 173.007812 70.347656 C 169.351562 71.089844 165.75 72.027344 162.210938 73.152344 C 158.339844 74.371094 154.546875 75.816406 150.84375 77.476562 L 150.839844 77.476562 C 141.527344 81.640625 132.816406 87.144531 125 93.835938 C 117.191406 87.148438 108.46875 81.644531 99.132812 77.472656 C 95.429688 75.820312 91.632812 74.375 87.757812 73.152344 C 84.082031 71.992188 80.339844 71.027344 76.539062 70.265625 C 71.875 69.335938 67.128906 68.714844 62.4375 68.414062 C 61.789062 68.375 61.085938 68.335938 60.355469 68.308594 C 60.042969 68.289062 59.722656 68.277344 59.398438 68.265625 L 59.398438 39.171875 L 51.199219 39.171875 L 51.199219 71.96875 C 51.199219 74.410156 53.195312 76.398438 55.636719 76.398438 "/>
<path style=" stroke:none;fill-rule:nonzero;fill:rgb(16.078432%,67.058825%,70.980394%);fill-opacity:1;" d="M 91.269531 130.898438 C 88.667969 128.777344 85.886719 126.894531 82.964844 125.277344 C 79.414062 128.210938 77.144531 132.652344 77.144531 137.605469 C 77.144531 146.425781 84.320312 153.597656 93.140625 153.597656 C 98.027344 153.597656 102.40625 151.398438 105.335938 147.929688 C 103.753906 144.988281 101.910156 142.183594 99.820312 139.554688 C 98.976562 142.449219 96.300781 144.570312 93.140625 144.570312 C 89.296875 144.570312 86.171875 141.449219 86.171875 137.605469 C 86.171875 134.414062 88.332031 131.71875 91.269531 130.898438 "/>
<path style=" stroke:none;fill-rule:nonzero;fill:rgb(16.078432%,67.058825%,70.980394%);fill-opacity:1;" d="M 156.84375 144.570312 C 153.683594 144.570312 151.007812 142.457031 150.171875 139.5625 C 148.074219 142.183594 146.230469 144.988281 144.652344 147.929688 C 147.578125 151.398438 151.957031 153.597656 156.84375 153.597656 C 165.660156 153.597656 172.832031 146.429688 172.832031 137.605469 C 172.832031 132.652344 170.566406 128.210938 167.015625 125.277344 C 164.101562 126.894531 161.320312 128.773438 158.714844 130.898438 C 161.648438 131.71875 163.800781 134.421875 163.800781 137.605469 C 163.800781 141.449219 160.683594 144.570312 156.84375 144.570312 "/>
</g>
</svg>
